X: 17123
T: Heilan' Donald Kissed Kitty
R: strathspey
M: 4/4
K: Gmajor
|:{c/}d/|B<GG>A B>AB<g|B<GG>A B<dA>c|B<GG>A B>AB<d|e<g d<g B<g A3/2:|
c/|B<dd(e/f/) g>fe<d|B<dde/f/ g>BA>c|B<dd(e/f/) g>fe<d|e<g d<g B<g B<A|
{c/}B<dd(e/f/) g>fe<d|{c/}B<dde/f/ g>B A2|{c/}B<dd(e/f/) g>fe<d|e<g d<g B<g [D3/2A3/2]||

